!!!COM:  Taffanel, Paul and Philippe Gaubert
!!!OTL:  Etude No. 5:  Pour le martele
!!!OPR:  24 Etudes Progressives
!!!ONB:  Royal Conservatory of Music Grade 9
!!!ONB:  The tenuto markings that begin in measure 4 have been added by the encoder to carry on the pattern of measures 1 and 2.
!!!YEC:  Copyright 2001, Joy Ollen
!!!YEM:  Rights to all derivative electronic formats reserved.
!! [Andante]
**kern	**dynam
*MM104	*
*clefG2	*
*k[b-e-]	*
*M6/4	*
=-	=-
8b-	f
8bb-	.
(16ccc	.
16bb-	.
16aa	.
16bb-)	.
8d~	.
8bb-	.
8e~	.
8bb-	.
8f~	.
8bb-	.
8b-~	.
8bb-	.
=2	=2
8g	.
8bb-	.
(16ccc	.
16bb-	.
16aa	.
16bb-)	.
8ee~	.
8bb-	.
8dd~	.
8bb-	.
8cc~	.
8bb-	.
8b-~	.
8bb-	.
=3	=3
8a	.
8ccc	.
(16ddd	.
16ccc	.
16bbn	.
16ccc)	.
8b-	.
8bb-	.
8cc	.
8aa	.
(16bb-	.
16aa	.
16gg#	.
16aa)	.
8f	.
8ee	.
=4	=4
8dd	.
8b-	.
(16cc	.
16b-	.
16a	.
16b-)	.
8ee~	.
8b-	.
8ff~	.
8b-	.
8bb-~	.
8b-	.
8dd~	.
8b-	.
=5	=5
8cc	.
8b	.
(16cc	.
16b-	.
16a	.
16b-)	.
8ee~	.
8b-	.
8ff~	.
8b-	.
8bb-~	.
8b-	.
8ccc~	.
8ee	.
=6	=6
8dd	.
8b-	.
(16cc	.
16b-	.
16a	.
16b-)	.
8a-~	.
8bb-	.
8f~	.
8bb-	.
8d~	.
8bb-	.
8f~	.
8b-	.
=7	=7
8g	.
8b-	.
(16cc	.
16b-	.
16a	.
16b-)	.
8g~	.
8bb-	.
8e~	.
8bb-	.
8f~	.
8bb-	.
8g~	.
8bb-	.
=8	=8
8b-	.
8b-	.
(16cc	.
16b-	.
16an	.
16b-)	.
8aa-~	.
8b-	.
8gg-~	.
8b-	.
8ff~	.
8b-	.
8ee~	.
8b-	.
=9	=9
8dd#	.
8bn	.
(16cc#	.
16b	.
16a#	.
16b)	.
8cc#~	.
8b	.
8dd#~	.
8b	.
8ee~	.
8b	.
8ff#~	.
8b	.
=10	=10
8gg#	.
8en	.
(16f#	.
16e	.
16d#	.
16e)	.
8g#~	.
8e	.
8bn~	.
8e	.
8ee~	.
8e	.
8gg#~	.
8e	.
=11	=11
8f#	.
8en	.
(16f#	.
16e	.
16d#	.
16e)	.
8a#~	.
8e	.
8cc#~	.
8e	.
8een~	.
8e	.
8gg#~	.
8e	.
=12	=12
8d#	.
8bn	.
(16cc#	.
16bn	.
16a#	.
16bn)	.
8an~	.
8bn	.
8g#~	.
8bn	.
8een~	.
8bn	.
8bbn~	.
8een	.
=13	=13
8dd#	.
8bn	.
(16cc#	.
16bn	.
16a#	.
16bn)	.
8an~	.
8bn	.
8g#~	.
8bn	.
8en~	.
8bn	.
8c#~	.
8bn	.
=14	=14
8bbn	.
8bn	.
(16ccn	.
16bn	.
16an	.
16bn)	.
8cc~	.
8a	.
8f#~	.
8a	.
8en~	.
8a	.
8d~	.
8cc	.
=15	=15
8bn	.
8g	.
(16a	.
16g	.
16f#	.
16g)	.
8bbn~	.
8g	.
8d~	.
8bbn	.
8g~	.
8bbn	.
8bn~	.
8bbn	.
=16	=16
8a	.
8een	.
(16ff#	.
16een	.
16dd#	.
16een)	.
8ccc~	.
8een	.
8ddn~	.
8een	.
8cc~	.
8dd	.
8d~	.
8dd	.
=17	=17
8bn	.
8dd	.
(16een	.
16dd	.
16cc#	.
16dd)	.
8bbn~	.
8dd	.
8bn~	.
8dd	.
8g~	.
8dd	.
8d~	.
8dd	.
=18	=18
8c	.
8a	.
(16bn	.
16a	.
16g#	.
16a)	.
8en	.
8cc	.
(16dd	.
16cc	.
16bn	.
16cc)	.
8a	.
8een	.
(16ff#	.
16een	.
16dd#	.
16een)	.
=19	=19
8cc	.
8aa	.
(16bbn	.
16aa	.
16gg#	.
16aa)	.
8een	.
8ccc	.
(16ddd	.
16ccc	.
16bbn	.
16ccc)	.
8aa~	.
8eeen	.
8ccc~	.
8aaa	.
=20	=20
8d	.
8bn	.
(16cc	.
16bn	.
16a#	.
16bn)	.
8g~	.
8dd	.
8bn~	.
8gg	.
8dd~	.
8bbn	.
8gg~	.
8ddd	.
=21	=21
8d	.
8cc	.
(16dd	.
16cc	.
16bn	.
16cc)	.
8d	.
8ff#	.
8d	.
8aa	.
(16bbn	.
16aa	.
16gg#	.
16aa)	.
8d	.
8ddd	.
=22	=22
8bbn	.
8gg	.
(16aa	.
16gg	.
16ff#	.
16gg)	.
8dd~	.
8gg	.
8bn~	.
8gg	.
8g~	.
8gg	.
8d~	.
8gg	.
=23	=23
8en	.
8cc	.
(16dd	.
16cc	.
16bn	.
16cc)	.
8g~	.
8een	.
8cc~	.
8gg	.
8een~	.
8ccc	.
8gg~	.
8eeen	.
=24	=24
8eee-	.
8ccc	.
(16ddd	.
16ccc	.
16bbn	.
16ccc)	.
8aa~	.
8ccc	.
8ff#~	.
8ccc	.
8ee-~	.
8ccc	.
8cc~	.
8eee-	.
=25	=25
8ddd	.
8bb-	.
(16ccc	.
16bb-	.
16aa	.
16bb-)	.
8gg~	.
8bb-	.
8dd~	.
8bb-	.
8b-~	.
8bb-	.
8g~	.
8bb-	.
=26	=26
8e-	.
8cc	.
(16dd	.
16cc	.
16bn	.
16cc)	.
8g~	.
8ee-	.
8cc~	.
8gg	.
8ee-~	.
8ccc	.
8gg~	.
8eee-	.
=27	=27
8f	.
8dd	.
(16ee-	.
16dd	.
16cc	.
16dd)	.
8b-~	.
8gg	.
8dd~	.
8bb-	.
8gg~	.
8ddd	.
8bb-~	.
8ggg	.
=28	=28
8f	.
8eee-	.
(16fff	.
16eee-	.
16ddd	.
16eee-)	.
8ccc~	.
8eee-	.
8aa~	.
8eee-	.
8ff~	.
8eee-	.
8a~	.
8eee-	.
=29	=29
8ddd	.
8bb-	.
(16ccc	.
16bb-	.
16aa	.
16bb-)	.
8d~	.
8bb-	.
8e~	.
8bb-	.
8f~	.
8bb-	.
8b-~	.
8bb-	.
=30	=30
8gg	.
8b-	.
(16cc	.
16b-	.
16a	.
16b-)	.
8g~	.
8b-	.
8e~	.
8b-	.
8gg~	.
8b-	.
8aa~	.
8b-	.
=31	=31
8b-	.
8dd	.
.	<
(16ee	(
16dd	(
16cc#	(
16dd)	(
8b-	(
8ff	(
8b-	(
8bb-	(
(16cccn	(
16bb-	(
16aa	(
16bb-)	(
8b-	(
8bbb-	(
=32	=32
[2.b-	ff
4b-]	.
2r	.
==	==
*-	*-
